contributed-vectors/avira_pm.svg

<?xml version="1.0" encoding="UTF-8" standalone="no"?>
<svg
   xmlns:dc="http://purl.org/dc/elements/1.1/"
   xmlns:cc="http://creativecommons.org/ns#"
   xmlns:rdf="http://www.w3.org/1999/02/22-rdf-syntax-ns#"
   xmlns:svg="http://www.w3.org/2000/svg"
   xmlns="http://www.w3.org/2000/svg"
   xmlns:sodipodi="http://sodipodi.sourceforge.net/DTD/sodipodi-0.dtd"
   xmlns:inkscape="http://www.inkscape.org/namespaces/inkscape"
   width="100%"
   height="100%"
   viewBox="0 0 192 192"
   version="1.1"
   xml:space="preserve"
   style="fill-rule:evenodd;clip-rule:evenodd;stroke-linejoin:round;stroke-miterlimit:2;"
   id="svg19"
   sodipodi:docname="avira_pm.svg"
   inkscape:export-filename="/home/jphilippe/github/delta/android/contributed-vectors/avira_pm.png"
   inkscape:export-xdpi="96"
   inkscape:export-ydpi="96"
   inkscape:version="1.0.1 (3bc2e813f5, 2020-09-07)"><metadata
   id="metadata25"><rdf:RDF><cc:Work
       rdf:about=""><dc:format>image/svg+xml</dc:format><dc:type
         rdf:resource="http://purl.org/dc/dcmitype/StillImage" /></cc:Work></rdf:RDF></metadata><defs
   id="defs23">
        
        
        
        
        
    </defs><sodipodi:namedview
   pagecolor="#ffffff"
   bordercolor="#666666"
   borderopacity="1"
   objecttolerance="10"
   gridtolerance="10"
   guidetolerance="10"
   inkscape:pageopacity="0"
   inkscape:pageshadow="2"
   inkscape:window-width="1884"
   inkscape:window-height="1052"
   id="namedview21"
   showgrid="false"
   inkscape:zoom="3.3697917"
   inkscape:cx="96"
   inkscape:cy="96"
   inkscape:window-x="36"
   inkscape:window-y="0"
   inkscape:window-maximized="1"
   inkscape:current-layer="svg19" />
    <g
   transform="translate(8,8)"
   id="g4">
            <path
   d="m 164.5,21.5 c 0,-5.519 -4.481,-10 -10,-10 h -133 c -5.519,0 -10,4.481 -10,10 v 133 c 0,5.519 4.481,10 10,10 h 133 c 5.519,0 10,-4.481 10,-10 z"
   style="fill:#ffffff"
   id="path2" />
        </g><g
   transform="matrix(0.865646,0,0,0.919454,12.898,12.0243)"
   id="g8"
   style="fill:#ff837d;fill-opacity:1">
            <path
   d="m 136.685,79.249 c 0,53.296 -40.685,70.036 -40.685,70.036 0,0 -40.685,-16.74 -40.685,-70.036 4.667,-4.667 27.123,-7.725 40.685,-7.725 13.562,0 36.382,3.423 40.685,7.725"
   style="fill:#ff837d;fill-opacity:1"
   id="path6" />
        </g><path
   d="m 82.332,73.524 c -2.849,0.349 -5.695,0.791 -8.354,1.317 V 64.454 c 0,-11.604 9.868,-21.025 22.022,-21.025 12.154,0 22.022,9.421 22.022,21.025 V 74.95 c -2.658,-0.533 -5.504,-0.992 -8.354,-1.359 v -5.426 c 0,-8.731 -6.124,-15.819 -13.668,-15.819 -7.544,0 -13.668,7.088 -13.668,15.819 z"
   style="fill:#ff837d;fill-opacity:1"
   id="path10" /><g
   transform="matrix(0.580162,0,0,0.656058,40.3045,39.5557)"
   id="g14">
            <path
   d="m 136.685,79.249 c 0,53.296 -40.685,70.036 -40.685,70.036 0,0 -40.685,-16.74 -40.685,-70.036 4.667,-4.667 27.123,-7.725 40.685,-7.725 13.562,0 36.382,3.423 40.685,7.725"
   style="fill:#ffffff"
   id="path12" />
        </g><path
   d="m 93.11,109.772 c -1.779,-1.009 -2.981,-2.921 -2.981,-5.111 0,-3.24 2.631,-5.871 5.871,-5.871 3.24,0 5.871,2.631 5.871,5.871 0,2.19 -1.202,4.102 -2.981,5.111 v 6.854 h -5.78 z"
   style="fill:#ff837d;fill-opacity:1"
   id="path16" />
</svg>

<?xml version="1.0" encoding="UTF-8" standalone="no"?>
<!DOCTYPE svg PUBLIC "-//W3C//DTD SVG 1.1//EN" "http://www.w3.org/Graphics/SVG/1.1/DTD/svg11.dtd">
<svg width="100%" height="100%" viewBox="0 0 192 192" version="1.1" xmlns="http://www.w3.org/2000/svg" xmlns:xlink="http://www.w3.org/1999/xlink" xml:space="preserve" xmlns:serif="http://www.serif.com/" style="fill-rule:evenodd;clip-rule:evenodd;stroke-linejoin:round;stroke-miterlimit:2;">
    <g id="Layer1">
        <g transform="matrix(1,0,0,1,8,8)">
            <path d="M164.5,21.5C164.5,15.981 160.019,11.5 154.5,11.5L21.5,11.5C15.981,11.5 11.5,15.981 11.5,21.5L11.5,154.5C11.5,160.019 15.981,164.5 21.5,164.5L154.5,164.5C160.019,164.5 164.5,160.019 164.5,154.5L164.5,21.5Z" style="fill:white;"/>
        </g>
        <g transform="matrix(0.865646,0,0,0.919454,12.898,12.0243)">
            <path d="M136.685,79.249C136.685,132.545 96,149.285 96,149.285C96,149.285 55.315,132.545 55.315,79.249C59.982,74.582 82.438,71.524 96,71.524C109.562,71.524 132.382,74.947 136.685,79.249" style="fill:rgb(232,94,92);"/>
        </g>
        <path d="M82.332,73.524C79.483,73.873 76.637,74.315 73.978,74.841L73.978,64.454C73.978,52.85 83.846,43.429 96,43.429C108.154,43.429 118.022,52.85 118.022,64.454L118.022,74.95C115.364,74.417 112.518,73.958 109.668,73.591L109.668,68.165C109.668,59.434 103.544,52.346 96,52.346C88.456,52.346 82.332,59.434 82.332,68.165L82.332,73.524Z" style="fill:rgb(232,94,92);"/>
        <g transform="matrix(0.580162,0,0,0.656058,40.3045,39.5557)">
            <path d="M136.685,79.249C136.685,132.545 96,149.285 96,149.285C96,149.285 55.315,132.545 55.315,79.249C59.982,74.582 82.438,71.524 96,71.524C109.562,71.524 132.382,74.947 136.685,79.249" style="fill:white;"/>
        </g>
        <path d="M93.11,109.772C91.331,108.763 90.129,106.851 90.129,104.661C90.129,101.421 92.76,98.79 96,98.79C99.24,98.79 101.871,101.421 101.871,104.661C101.871,106.851 100.669,108.763 98.89,109.772L98.89,116.626L93.11,116.626L93.11,109.772Z" style="fill:rgb(232,94,92);"/>
    </g>
</svg>
